!!!OTL: Jesus am Kreuze (3-6), S. 27
!!!id: P0977
**kern
*clefG2
*k[]
*G:
{4d
=1
4.g
8b
8dd
8cc
=2
4b
4a}
=3
{4g
=4
4d
4cc
4b
=5
2a}
=6
{4dd
=7
4ee
4cc
4ee
=8
4dd
4b}
=9
{4dd
=10
8ee
8dd
4cc
4a
=11
4g
4d}
=12
{8b
8g
=13
4dd
4dd
4cc
=14
2b}
=15
{4dd
=16
4ee
4cc
4ee
=17
4dd
4b}
=18
{4dd
=19
8ee
8dd
4cc
4a
=20
4g
4d}
=21
{8b
8g
=22
4dd
4dd
4cc
=23
2b}
==
*-
!!!minrhy: 8
!!!meters: 3/4 ]  ZZ[8
!!!cut: Jesus am Kreuze (3-6), S. 27
!!!reg: Lothringen
!!!trd: PINCK, Louis: Verklingende Weisen, Bd3, Metz 1933
!!!rhy1: X_  X_.XXX  X_X_
!!!rhy2: X_  X_X_X_  X__
!!!key: P0977  08  G 3/4 ]  ZZ[8
!!!mod: SECHSTONSKALA DUR ?]  AMBITUS[9
!!!kad: 223-533-53
!!!akz: 13_-52_65_61_53_65_61_53_
!!!fot: 'a__b__c__d__e__c__d__e__
!!!for: 'a__b__bw_c__bv_bw_c__bv_
!!!fok: '^a_Sa_\__\__^__\__\__^__
!! PHRAS[AUFTAKTIG]
!!!fkt: yyy
!! LOTH VKL
!! PR[9] 2K[9] 2G[17] 3K[13] 3G[4] 4A[4] 4Ü[0] 5A[0] 6K[0] 6G[0]
!! 7K[0] 7G[0] 8A[0] MEHR[0] SI[48] ABS[23] SR[26] SP[22]
!! ST[8] 2k[4] 2g[9] 3k[17] 3g[9] 4d[0] 4ü[0] 5d[4] 6k[0] 6g[0]
!! 7k[0] 7g[0] 8d[0] mehr[0] si[43] dm[+5] sr[13] sp[30]
!! 1F[17] 2F[75] 3F[8] 4F[0] LF[0] 2P[0] 3P[0] 4P[0] TRI[0] DF[3] AB[24]
!! TF[0] U3K[0] U3[0] U4[0] U4Ü[0] U5[4] U6K[0] U6[0] U7K[0] U7[4]
!! N1[21] N2K[0] N2[17] N3K[0] N3[29] N4[13] N4Ü[0] N5[13] N6K[0] N6[0]
!!!n7k: 0] N7[0] O1[0] O2K[0] O2[0] O3K[0] O3[0] HÖ[0
